rospo-dark/16x16/places/folder-torrent.svg

<svg height="22" viewBox="0 0 16 16" width="22" xmlns="http://www.w3.org/2000/svg"><path d="m7.999998 2.1818175a5.8181825 5.8181825 0 0 0 -5.8181825 5.8181821 5.8181825 5.8181825 0 0 0 5.8181825 5.8181834 5.8181825 5.8181825 0 0 0 3.838069-1.454546h-3.838069a4.3636369 4.3636369 0 0 1 -4.3636369-4.3636374 4.3636369 4.3636369 0 0 1 4.3636369-4.3636365v.7272729a3.6363641 3.6363641 0 0 0 -3.636364 3.6363636 3.6363641 3.6363641 0 0 0 3.636364 3.6363654h2.406251 2.129261a5.8181825 5.8181825 0 0 0  .49716-.727273h-5.032672c-1.6066467 0-2.9090912-1.3024454-2.9090912-2.9090924 0-1.6066463 1.3024445-2.9090908 2.9090912-2.9090908.2454684.0009163.489835.032894.7272729.095171v.7599427c-.2334001-.0836226-.4793456-.1268227-.7272729-.1278409-1.2049848 0-2.1818184.9768336-2.1818184 2.181818 0 1.204985.9768336 2.1818194 2.1818184 2.1818194h5.389206a5.8181825 5.8181825 0 0 0  .235795-.7272734h-5.625001a1.4545456 1.4545456 0 0 1 -1.4545456-1.454546 1.4545456 1.4545456 0 0 1 1.4545456-1.4545452 1.4545456 1.4545456 0 0 1 1.2585231.7272728h-1.2585231a.72727282.72727282 0 0 0 -.7272728.7272724.72727282.72727282 0 0 0  .7272728.727273h5.767047a5.8181825 5.8181825 0 0 0  .05114-.727273 5.8181825 5.8181825 0 0 0 -5.8181834-5.8181821z" fill="#d3dae3" stroke-width=".727273"/></svg>

<?xml version="1.0" encoding="UTF-8" standalone="no"?>
<svg
   xmlns:dc="http://purl.org/dc/elements/1.1/"
   xmlns:cc="http://creativecommons.org/ns#"
   xmlns:rdf="http://www.w3.org/1999/02/22-rdf-syntax-ns#"
   xmlns:svg="http://www.w3.org/2000/svg"
   xmlns="http://www.w3.org/2000/svg"
   xmlns:sodipodi="http://sodipodi.sourceforge.net/DTD/sodipodi-0.dtd"
   xmlns:inkscape="http://www.inkscape.org/namespaces/inkscape"
   width="22"
   height="22"
   version="1.1"
   viewBox="0 0 16 16"
   id="svg7"
   sodipodi:docname="folder-torrent.svg"
   inkscape:version="0.92.1 r">
  <metadata
     id="metadata11">
    <rdf:RDF>
      <cc:Work
         rdf:about="">
        <dc:format>image/svg+xml</dc:format>
        <dc:type
           rdf:resource="http://purl.org/dc/dcmitype/StillImage" />
      </cc:Work>
    </rdf:RDF>
  </metadata>
  <sodipodi:namedview
     pagecolor="#ffffff"
     bordercolor="#666666"
     borderopacity="1"
     objecttolerance="10"
     gridtolerance="10"
     guidetolerance="10"
     inkscape:pageopacity="0"
     inkscape:pageshadow="2"
     inkscape:window-width="769"
     inkscape:window-height="480"
     id="namedview9"
     showgrid="false"
     inkscape:zoom="10.727273"
     inkscape:cx="11"
     inkscape:cy="11"
     inkscape:window-x="0"
     inkscape:window-y="0"
     inkscape:window-maximized="0"
     inkscape:current-layer="svg7" />
  <defs
     id="defs3">
    <style
       id="current-color-scheme"
       type="text/css">
   .ColorScheme-Text { color:#d3dae3; } .ColorScheme-Highlight { color:#5294e2; }
  </style>
  </defs>
  <path
     style="color:#d3dae3;fill:currentColor;stroke-width:0.72727281"
     class="ColorScheme-Text"
     d="M 7.999998,2.1818175 A 5.8181825,5.8181825 0 0 0 2.1818155,7.9999996 5.8181825,5.8181825 0 0 0 7.999998,13.818183 5.8181825,5.8181825 0 0 0 11.838067,12.363637 H 7.999998 A 4.3636369,4.3636369 0 0 1 3.6363611,7.9999996 4.3636369,4.3636369 0 0 1 7.999998,3.6363631 V 4.363636 A 3.6363641,3.6363641 0 0 0 4.363634,7.9999996 3.6363641,3.6363641 0 0 0 7.999998,11.636365 h 2.406251 2.129261 a 5.8181825,5.8181825 0 0 0 0.49716,-0.727273 H 7.999998 c -1.6066467,0 -2.9090912,-1.3024454 -2.9090912,-2.9090924 0,-1.6066463 1.3024445,-2.9090908 2.9090912,-2.9090908 0.2454684,9.163e-4 0.489835,0.032894 0.7272729,0.095171 V 5.9460225 C 8.4938708,5.8623999 8.2479253,5.8191998 7.999998,5.8181816 c -1.2049848,0 -2.1818184,0.9768336 -2.1818184,2.181818 0,1.204985 0.9768336,2.1818194 2.1818184,2.1818194 h 5.389206 A 5.8181825,5.8181825 0 0 0 13.624999,9.4545456 H 7.999998 A 1.4545456,1.4545456 0 0 1 6.5454524,7.9999996 1.4545456,1.4545456 0 0 1 7.999998,6.5454544 1.4545456,1.4545456 0 0 1 9.2585211,7.2727272 H 7.999998 A 0.72727282,0.72727282 0 0 0 7.2727252,7.9999996 0.72727282,0.72727282 0 0 0 7.999998,8.7272726 h 5.767047 a 5.8181825,5.8181825 0 0 0 0.05114,-0.727273 5.8181825,5.8181825 0 0 0 -5.8181834,-5.8181821 z"
     id="path5"
     inkscape:connector-curvature="0" />
</svg>
